images/icons/github.svg

<svg height="48" viewBox="0 0 48 48" width="48" xmlns="http://www.w3.org/2000/svg"><g fill="none" fill-rule="evenodd"><path d="m-168-2775h320v4423h-320z" fill="#fff"/><path d="m24 0c13.2552 0 24 11.016 24 24.6072 0 10.8696-6.8688 20.0904-16.3992 23.3472-1.2168.2424-1.6488-.5256-1.6488-1.1808 0-.8112.0288-3.4608.0288-6.7536 0-2.2944-.768-3.792-1.6296-4.5552 5.3448-.6096 10.9608-2.6904 10.9608-12.1416 0-2.688-.9312-4.8816-2.472-6.6048.2496-.6216 1.0728-3.1248-.2352-6.5136 0 0-2.0112-.66-6.5928 2.5224-1.9575375-.5456287-3.9798462-.8241502-6.012-.828-2.030589.003665-4.0513368.2821939-6.0072.828-4.5864-3.1824-6.6024-2.5224-6.6024-2.5224-1.3032 3.3888-.48 5.892-.2328 6.5136-1.5336 1.7232-2.472 3.9168-2.472 6.6048 0 9.4272 5.604 11.5392 10.9344 12.1608-.6864.6144-1.308 1.6992-1.524 3.2904-1.368.6288-4.8432 1.716-6.984-2.0448 0 0-1.2696-2.364-3.6792-2.5368 0 0-2.34-.0312-.1632 1.4952 0 0 1.572.756 2.664 3.6 0 0 1.4088 4.392 8.0856 2.904.012 2.0568.0336 3.996.0336 4.5816 0 .6504-.4416 1.4112-1.6392 1.1832-9.5376-3.252-16.4136-12.4776-16.4136-23.3496 0-13.5912 10.7472-24.6072 24-24.6072" fill="#000" fill-rule="nonzero"/></g></svg>

<?xml version="1.0" encoding="UTF-8"?>
<svg width="48px" height="48px" viewBox="0 0 48 48" version="1.1" xmlns="http://www.w3.org/2000/svg" xmlns:xlink="http://www.w3.org/1999/xlink">
    <!-- Generator: Sketch 51 (57462) - http://www.bohemiancoding.com/sketch -->
    <title>Github</title>
    <desc>Created with Sketch.</desc>
    <defs></defs>
    <g id="Mobile" stroke="none" stroke-width="1" fill="none" fill-rule="evenodd">
        <g id="Article-320" transform="translate(-168.000000, -2775.000000)">
            <rect fill="#FFFFFF" x="0" y="0" width="320" height="4423"></rect>
            <g id="Author" transform="translate(96.000000, 2607.000000)" fill="#000000" fill-rule="nonzero">
                <g id="Icons" transform="translate(8.000000, 168.000000)">
                    <g id="Github" transform="translate(64.000000, 0.000000)">
                        <g id="github-[#142]">
                            <g id="Page-1">
                                <g id="Dribbble-Light-Preview">
                                    <g id="icons">
                                        <path d="M24,1.27329258e-12 C37.2552,1.27329258e-12 48,11.016 48,24.6072 C48,35.4768 41.1312,44.6976 31.6008,47.9544 C30.384,48.1968 29.952,47.4288 29.952,46.7736 C29.952,45.9624 29.9808,43.3128 29.9808,40.02 C29.9808,37.7256 29.2128,36.228 28.3512,35.4648 C33.696,34.8552 39.312,32.7744 39.312,23.3232 C39.312,20.6352 38.3808,18.4416 36.84,16.7184 C37.0896,16.0968 37.9128,13.5936 36.6048,10.2048 C36.6048,10.2048 34.5936,9.5448 30.012,12.7272 C28.0544625,12.1815713 26.0321538,11.9030498 24,11.8992 C21.969411,11.902865 19.9486632,12.1813939 17.9928,12.7272 C13.4064,9.5448 11.3904,10.2048 11.3904,10.2048 C10.0872,13.5936 10.9104,16.0968 11.1576,16.7184 C9.624,18.4416 8.6856,20.6352 8.6856,23.3232 C8.6856,32.7504 14.2896,34.8624 19.62,35.484 C18.9336,36.0984 18.312,37.1832 18.096,38.7744 C16.728,39.4032 13.2528,40.4904 11.112,36.7296 C11.112,36.7296 9.8424,34.3656 7.4328,34.1928 C7.4328,34.1928 5.0928,34.1616 7.2696,35.688 C7.2696,35.688 8.8416,36.444 9.9336,39.288 C9.9336,39.288 11.3424,43.68 18.0192,42.192 C18.0312,44.2488 18.0528,46.188 18.0528,46.7736 C18.0528,47.424 17.6112,48.1848 16.4136,47.9568 C6.876,44.7048 2.7000624e-13,35.4792 2.7000624e-13,24.6072 C2.7000624e-13,11.016 10.7472,-9.09494702e-13 24,-9.09494702e-13" id="github-[#142]"></path>
                                    </g>
                                </g>
                            </g>
                        </g>
                    </g>
                </g>
            </g>
        </g>
    </g>
</svg>
